packages/core/src/svgs/tokens/mono/CAS.svg

<svg width="24" height="24" viewBox="0 0 24 24" fill="none" xmlns="http://www.w3.org/2000/svg">
<path fill-rule="evenodd" clip-rule="evenodd" d="M10.2325 2H7.88244V5.55646C6.79995 6.24754 5.90911 7.20031 5.29224 8.32673C4.67536 9.45313 4.35233 10.7168 4.35303 12.0011C4.35233 13.2854 4.67536 14.5491 5.29224 15.6756C5.90911 16.802 6.79995 17.7548 7.88244 18.4459V22H10.2325V19.4429C10.8 19.577 11.3913 19.6488 12 19.6488C12.6071 19.6488 13.1983 19.5776 13.7647 19.4435V22H16.1177V18.4465C16.54 18.1758 16.9342 17.8653 17.2942 17.5195V19.6488H19.6472V4.94116H17.2942V6.48293C16.9331 6.13652 16.5391 5.82622 16.1177 5.55646V2H13.7647V4.55881C13.1865 4.42246 12.5942 4.35377 12 4.35411C11.3919 4.35411 10.8 4.4247 10.2325 4.55999V2ZM17.2942 12C17.2942 10.5959 16.7364 9.24932 15.7435 8.25648C14.7508 7.26364 13.4042 6.70588 12 6.70588C10.5961 6.70588 9.24941 7.26364 8.25658 8.25648C7.26374 9.24932 6.70597 10.5959 6.70597 12C6.70597 13.404 7.26374 14.7506 8.25658 15.7435C9.24941 16.7363 10.5961 17.2941 12 17.2941C13.4042 17.2941 14.7508 16.7363 15.7435 15.7435C16.7364 14.7506 17.2942 13.404 17.2942 12Z" fill="white"/>
</svg>

<svg xmlns="http://www.w3.org/2000/svg" width="24" height="24" fill="none" viewBox="0 0 24 24">
    <path fill="#fff" fill-rule="evenodd" d="M10.233 2h-2.35v3.556a7.64 7.64 0 0 0-3.53 6.445 7.64 7.64 0 0 0 3.53 6.445V22h2.35v-2.557a7.7 7.7 0 0 0 3.532 0V22h2.353v-3.553q.634-.408 1.176-.927v2.129h2.353V4.94h-2.353v1.542a7.7 7.7 0 0 0-1.176-.927V2h-2.353v2.559a7.7 7.7 0 0 0-3.533.001zm7.061 10a5.294 5.294 0 1 0-10.588 0 5.294 5.294 0 0 0 10.588 0" clip-rule="evenodd"/>
</svg>
